docs/img/svg/arrow-left.svg

<svg xmlns="http://www.w3.org/2000/svg" preserveAspectRatio="xMidYMid" width="20" height="14" viewBox="0 0 20 14"><defs><style>.cls-1{fill:#fff;fill-rule:evenodd}</style></defs><path d="M.273 7.674l5.951 6.058a.92.92 0 0 0 1.315 0 .957.957 0 0 0 0-1.339L3.175 7.951H19.07c.514 0 .93-.424.93-.947a.938.938 0 0 0-.93-.946H3.175l4.364-4.442a.96.96 0 0 0 0-1.339.92.92 0 0 0-1.315 0L.273 6.335a.957.957 0 0 0 0 1.339z" class="cls-1"/></svg>

<svg xmlns="http://www.w3.org/2000/svg" xmlns:xlink="http://www.w3.org/1999/xlink" preserveAspectRatio="xMidYMid" width="20" height="14" viewBox="0 0 20 14">
  <defs>
    <style>
      .cls-1 {
        fill: #fff;
        fill-rule: evenodd;
      }
    </style>
  </defs>
  <path d="M0.273,7.674 L6.224,13.732 C6.587,14.101 7.176,14.101 7.539,13.732 C7.903,13.362 7.903,12.763 7.539,12.393 L3.175,7.951 L19.070,7.951 C19.584,7.951 20.000,7.527 20.000,7.004 C20.000,6.482 19.584,6.058 19.070,6.058 L3.175,6.058 L7.539,1.616 C7.902,1.246 7.902,0.647 7.539,0.277 C7.358,0.093 7.120,0.000 6.882,0.000 C6.644,0.000 6.406,0.093 6.224,0.277 L0.273,6.335 C-0.091,6.705 -0.091,7.304 0.273,7.674 Z" class="cls-1"/>
</svg>
